X: 21913
T: THE PERRIWIG REEL
R: reel
B: K\"ohler's Violin Repository, v.2, 1885 p.191 #3
F: http://www.archive.org/details/klersviolinrepos02rugg
Z: 2012 John Chambers <jc:trillian.mit.edu>
M: C|
L: 1/8
K: G
[|\
vg3b agfa | gfeg (dB)B2 | g3b agfa | gef^d e/e/eg2 |\
g3b agfa | gfeg dBBd | gfgb agfa | gef^d e/e/eg2 ||
dB B/B/B (dB)Bg | eBBA GEEg | dB B/B/B (dB)Ba | gef^d e/e/eg2 |\
dB B/B/B (dB)Bg | eBBA GEEF | GABc dBBa | gef^d e/e/e"D.C."g2 |]

%%sep 2 1 500

